images/safe-green-token.svg

<svg height="250" viewBox="0 0 250 250" width="250" xmlns="http://www.w3.org/2000/svg" xmlns:xlink="http://www.w3.org/1999/xlink"><clipPath id="a"><path d="m250 125c0 69.035156-55.964844 125-125 125s-125-55.964844-125-125 55.964844-125 125-125 125 55.964844 125 125zm0 0"/></clipPath><linearGradient id="b" gradientUnits="userSpaceOnUse" x1="-3.735" x2="289.76251225" y1="228.66000375" y2="-21.7024995"><stop offset="0" stop-color="#12ff80"/><stop offset=".13" stop-color="#15fd85"/><stop offset=".29" stop-color="#1ff896"/><stop offset=".49" stop-color="#30f1b2"/><stop offset=".69" stop-color="#48e7d9"/><stop offset=".87" stop-color="#5fddff"/></linearGradient><g clip-path="url(#a)"><path d="m0 0h250v250h-250z" fill="url(#b)"/></g><g fill="#121312"><path d="m195.015625 124.953125h-17.074219c-5.101562 0-9.234375 4.132813-9.234375 9.230469v24.785156c0 5.101562-4.132812 9.234375-9.230469 9.234375h-67.945312c-5.097656 0-9.230469 4.132813-9.230469 9.230469v17.078125c0 5.101562 4.132813 9.234375 9.230469 9.234375h71.875c5.101562 0 9.179688-4.136719 9.179688-9.234375v-13.699219c0-5.101562 4.132812-8.71875 9.230468-8.71875h13.199219c5.101563 0 9.234375-4.136719 9.234375-9.234375v-28.785156c0-5.097657-4.136719-9.125-9.234375-9.125zm0 0"/><path d="m82.296875 91.027344c0-5.101563 4.132813-9.230469 9.230469-9.230469h67.898437c5.101563 0 9.234375-4.136719 9.234375-9.234375v-17.078125c0-5.097656-4.136718-9.230469-9.234375-9.230469h-71.832031c-5.101562 0-9.234375 4.132813-9.234375 9.230469v13.15625c0 5.101563-4.132813 9.234375-9.230469 9.234375h-13.144531c-5.097656 0-9.230469 4.136719-9.230469 9.234375v28.8125c0 5.101563 4.148438 9.027344 9.25 9.027344h17.074219c5.101563 0 9.234375-4.136719 9.234375-9.234375l-.015625-24.683594zm0 0"/><path d="m117.460938 107.003906h16.40625c5.34375 0 9.683593 4.339844 9.683593 9.683594v16.40625c0 5.34375-4.339843 9.683594-9.683593 9.683594h-16.40625c-5.34375 0-9.683594-4.339844-9.683594-9.683594v-16.40625c0-5.34375 4.339844-9.683594 9.683594-9.683594zm0 0"/></g></svg>

<svg xmlns="http://www.w3.org/2000/svg" xmlns:xlink="http://www.w3.org/1999/xlink" width="250px" height="250px" viewBox="0 0 250 250" version="1.1">
<defs>
<clipPath id="clip1">
  <path d="M 250 125 C 250 194.035156 194.035156 250 125 250 C 55.964844 250 0 194.035156 0 125 C 0 55.964844 55.964844 0 125 0 C 194.035156 0 250 55.964844 250 125 Z M 250 125 "/>
</clipPath>
<linearGradient id="linear0" gradientUnits="userSpaceOnUse" x1="-14.94" y1="914.640015" x2="1159.050049" y2="-86.809998" gradientTransform="matrix(0.25,0,0,0.25,0,0)">
<stop offset="0" style="stop-color:rgb(7.058824%,100%,50.196081%);stop-opacity:1;"/>
<stop offset="0.13" style="stop-color:rgb(8.235294%,99.215686%,52.156866%);stop-opacity:1;"/>
<stop offset="0.29" style="stop-color:rgb(12.156863%,97.254902%,58.823532%);stop-opacity:1;"/>
<stop offset="0.49" style="stop-color:rgb(18.82353%,94.509804%,69.803923%);stop-opacity:1;"/>
<stop offset="0.69" style="stop-color:rgb(28.235295%,90.588236%,85.09804%);stop-opacity:1;"/>
<stop offset="0.87" style="stop-color:rgb(37.254903%,86.666667%,100%);stop-opacity:1;"/>
</linearGradient>
</defs>
<g id="surface1">
<g clip-path="url(#clip1)" clip-rule="nonzero">
<rect x="0" y="0" width="250" height="250" style="fill:url(#linear0);stroke:none;"/>
</g>
<path style=" stroke:none;fill-rule:nonzero;fill:rgb(7.058824%,7.450981%,7.058824%);fill-opacity:1;" d="M 195.015625 124.953125 L 177.941406 124.953125 C 172.839844 124.953125 168.707031 129.085938 168.707031 134.183594 L 168.707031 158.96875 C 168.707031 164.070312 164.574219 168.203125 159.476562 168.203125 L 91.53125 168.203125 C 86.433594 168.203125 82.300781 172.335938 82.300781 177.433594 L 82.300781 194.511719 C 82.300781 199.613281 86.433594 203.746094 91.53125 203.746094 L 163.40625 203.746094 C 168.507812 203.746094 172.585938 199.609375 172.585938 194.511719 L 172.585938 180.8125 C 172.585938 175.710938 176.71875 172.09375 181.816406 172.09375 L 195.015625 172.09375 C 200.117188 172.09375 204.25 167.957031 204.25 162.859375 L 204.25 134.074219 C 204.25 128.976562 200.113281 124.949219 195.015625 124.949219 Z M 195.015625 124.953125 "/>
<path style=" stroke:none;fill-rule:nonzero;fill:rgb(7.058824%,7.450981%,7.058824%);fill-opacity:1;" d="M 82.296875 91.027344 C 82.296875 85.925781 86.429688 81.796875 91.527344 81.796875 L 159.425781 81.796875 C 164.527344 81.796875 168.660156 77.660156 168.660156 72.5625 L 168.660156 55.484375 C 168.660156 50.386719 164.523438 46.253906 159.425781 46.253906 L 87.59375 46.253906 C 82.492188 46.253906 78.359375 50.386719 78.359375 55.484375 L 78.359375 68.640625 C 78.359375 73.742188 74.226562 77.875 69.128906 77.875 L 55.984375 77.875 C 50.886719 77.875 46.753906 82.011719 46.753906 87.109375 L 46.753906 115.921875 C 46.753906 121.023438 50.902344 124.949219 56.003906 124.949219 L 73.078125 124.949219 C 78.179688 124.949219 82.3125 120.8125 82.3125 115.714844 L 82.296875 91.03125 Z M 82.296875 91.027344 "/>
<path style=" stroke:none;fill-rule:nonzero;fill:rgb(7.058824%,7.450981%,7.058824%);fill-opacity:1;" d="M 117.460938 107.003906 L 133.867188 107.003906 C 139.210938 107.003906 143.550781 111.34375 143.550781 116.6875 L 143.550781 133.09375 C 143.550781 138.4375 139.210938 142.777344 133.867188 142.777344 L 117.460938 142.777344 C 112.117188 142.777344 107.777344 138.4375 107.777344 133.09375 L 107.777344 116.6875 C 107.777344 111.34375 112.117188 107.003906 117.460938 107.003906 Z M 117.460938 107.003906 "/>
</g>
</svg>
